docs/themes/v2/source/images/new/communityborder.svg

<svg fill="none" height="66" viewBox="0 0 66 66" width="66" xmlns="http://www.w3.org/2000/svg"><path clip-rule="evenodd" d="m6 2v-2h-6v6h2v54h-2v6h6v-2h54v2h6v-6h-2v-54h2v-6h-6v2zm-2 4h2v-2h54v2h2v54h-2v2h-54v-2h-2z" fill="#e68f52" fill-rule="evenodd"/></svg>

<svg width="66" height="66" viewBox="0 0 66 66" fill="none" xmlns="http://www.w3.org/2000/svg">
<path fill-rule="evenodd" clip-rule="evenodd" d="M6 2V0H0V6H2V60H0V66H6V64H60V66H66V60H64V6H66V0H60V2H6ZM4 6H6V4H60V6H62V60H60V62H6V60H4V6Z" fill="#E68F52"/>
</svg>
